!!!OTL: Muede kehrt ein Wandersmann zurueck nach der Heimat seiner Lieben Glueck
!!!ARE: Europa, Mitteleuropa, Deutschland, Wuerttemberg, Tiefenbach
!!!SCT: D1007
!!!YEM: Copyright 1995, estate of Helmut Schaffrath.
**kern
*ICvox
*Ivox
*M4/4
*k[f#]
*G:
{8b
8a
=1
4.g
8g
8g
8g
8g
8cc
=2
4cc
2r}
{8d
8f#
=3
4.g
8a
8g
8a
8ee
8dd
=4
4b
2r}
{8g
8a
=5
4.b
8dd
8cc
8b
8a
8g
=6
4e
4.r}
{8c
8B
8A
=7
8d
8e
8f#
8a
4ee
4dd
=8
4b
2r}
==
!!!AGN: Liebes - Lied
!! DVA-Signatur A 37 192
!!!ONB: ESAC (Essen Associative Code) Database: DVA
!!!AMT: simple quadruple
!!!AIN: vox
!!!EED: Helmut Schaffrath
!!!EEV: 1.0
*-
